static/images/book-illustration.svg

<?xml version="1.0" encoding="UTF-8"?>
<svg width="34px" height="29px" viewBox="0 0 34 29" version="1.1" xmlns="http://www.w3.org/2000/svg" xmlns:xlink="http://www.w3.org/1999/xlink">
    <title>book-illustration</title>
    <g id="Page-1" stroke="none" stroke-width="1" fill="none" fill-rule="evenodd">
        <g id="book-illustration" transform="translate(1.000000, 0.999996)">
            <path d="M1.6000016,25 C1.17564918,25 0.768672769,24.8537652 0.468624469,24.5932097 C0.168560169,24.3327931 0,23.9794598 0,23.6111265 L0,1.38890768 C0,1.02056051 0.168560169,0.667282781 0.468624469,0.406824487 C0.768672769,0.146352304 1.17564918,0 1.6000016,0 L11.1999952,0 C12.1081401,-0.000911562756 13.006061,0.166352301 13.8337418,0.490643918 C14.6615827,0.814935536 15.3999834,1.28879658 15.999984,1.88057427 C16.5999846,1.28879658 17.3385453,0.814935536 18.1662262,0.490643918 C18.993907,0.166352301 19.8918279,-0.000911562756 20.7999888,0 L30.3999984,0 C30.8243188,0 31.2313592,0.146352304 31.5313595,0.406824487 C31.8315198,0.667282781 32,1.02056051 32,1.38890768 L32,23.6111265 C32,23.9794598 31.8315198,24.3327931 31.5313595,24.5932097 C31.2313592,24.8537652 30.8243188,25 30.3999984,25 L1.6000016,25 Z M16,1.96428605 L16,27.5000037" id="Shape-fill" fill="#E9F0FA" fill-rule="nonzero"></path>
            <path d="M1.6000016,25 C1.17564918,25 0.768672769,24.8537652 0.468624469,24.5932097 C0.168560169,24.3327931 0,23.9794598 0,23.6111265 L0,1.38890768 C0,1.02056051 0.168560169,0.667282781 0.468624469,0.406824487 C0.768672769,0.146352304 1.17564918,0 1.6000016,0 L11.1999952,0 C12.1081401,-0.000911562756 13.006061,0.166352301 13.8337418,0.490643918 C14.6615827,0.814935536 15.3999834,1.28879658 15.999984,1.88057427 C16.5999846,1.28879658 17.3385453,0.814935536 18.1662262,0.490643918 C18.993907,0.166352301 19.8918279,-0.000911562756 20.7999888,0 L30.3999984,0 C30.8243188,0 31.2313592,0.146352304 31.5313595,0.406824487 C31.8315198,0.667282781 32,1.02056051 32,1.38890768 L32,23.6111265 C32,23.9794598 31.8315198,24.3327931 31.5313595,24.5932097 C31.2313592,24.8537652 30.8243188,25 30.3999984,25 L1.6000016,25 Z M16,1.96428605 L16,27.5000037" id="Shape-border" stroke="#1E64C8" stroke-linecap="round" stroke-linejoin="round"></path>
        </g>
    </g>
</svg>

<svg height="29" viewBox="0 0 34 29" width="34" xmlns="http://www.w3.org/2000/svg"><g fill="none" fill-rule="evenodd" transform="translate(1 .999996)"><path d="m1.6000016 25c-.42435242 0-.83132883-.1462348-1.13137713-.4067903-.3000643-.2604166-.46862447-.6137499-.46862447-.9820832v-22.22221882c0-.36834717.16856017-.7216249.46862447-.98208319.3000483-.26047219.70702471-.40682449 1.13137713-.40682449h9.5999936c.9081449-.00091156 1.8060658.1663523 2.6337466.49064392.8278409.32429162 1.5662416.79815266 2.1662422 1.38993035.6000006-.59177769 1.3385613-1.06563873 2.1662422-1.38993035.8276808-.32429162 1.7256017-.49155548 2.6337626-.49064392h9.6000096c.4243204 0 .8313608.1463523 1.1313611.40682449.3001603.26045829.4686405.61373602.4686405.98208319v22.22221882c0 .3683333-.1684802.7216666-.4686405.9820832-.3000003.2605555-.7070407.4067903-1.1313611.4067903zm14.3999984-23.03571395v25.53571765" fill="#e9f0fa" fill-rule="nonzero"/><path d="m1.6000016 25c-.42435242 0-.83132883-.1462348-1.13137713-.4067903-.3000643-.2604166-.46862447-.6137499-.46862447-.9820832v-22.22221882c0-.36834717.16856017-.7216249.46862447-.98208319.3000483-.26047219.70702471-.40682449 1.13137713-.40682449h9.5999936c.9081449-.00091156 1.8060658.1663523 2.6337466.49064392.8278409.32429162 1.5662416.79815266 2.1662422 1.38993035.6000006-.59177769 1.3385613-1.06563873 2.1662422-1.38993035.8276808-.32429162 1.7256017-.49155548 2.6337626-.49064392h9.6000096c.4243204 0 .8313608.1463523 1.1313611.40682449.3001603.26045829.4686405.61373602.4686405.98208319v22.22221882c0 .3683333-.1684802.7216666-.4686405.9820832-.3000003.2605555-.7070407.4067903-1.1313611.4067903zm14.3999984-23.03571395v25.53571765" stroke="#1e64c8" stroke-linecap="round" stroke-linejoin="round"/></g></svg>
